flaticon/transport/caravan.svg

<svg xmlns="http://www.w3.org/2000/svg" width="32" height="32" viewBox="0 0 24 24">
    <path d="M4.800781 18C4.359375 18 4 18.359375 4 18.800781 4 19.238281 4.359375 19.601562 4.800781 19.601562 5.238281 19.601562 5.601562 19.238281 5.601562 18.800781 5.601562 18.359375 5.238281 18 4.800781 18zM15.199219 18C14.761719 18 14.398438 18.359375 14.398438 18.800781 14.398438 19.238281 14.761719 19.601562 15.199219 19.601562 15.640625 19.601562 16 19.238281 16 18.800781 16 18.359375 15.640625 18 15.199219 18zM15.199219 18"/>
    <path d="M 23.601562 13.601562 L 22.398438 13.601562 L 22.398438 12.398438 C 22.398438 12.160156 22.238281 12 22 12 C 21.761719 12 21.601562 12.160156 21.601562 12.398438 L 21.601562 13.601562 L 20 13.601562 L 20 3.960938 C 20 3.078125 19.320312 2.398438 18.480469 2.398438 L 1.558594 2.398438 C 0.679688 2.398438 0 3.078125 0 3.960938 L 0 17.800781 C 0 18.558594 0.640625 19.199219 1.398438 19.199219 L 2.027344 19.199219 C 2.21875 20.566406 3.375 21.601562 4.800781 21.601562 C 6.222656 21.601562 7.378906 20.566406 7.570312 19.199219 L 12.429688 19.199219 C 12.621094 20.566406 13.777344 21.601562 15.199219 21.601562 C 16.625 21.601562 17.78125 20.566406 17.972656 19.199219 L 20 19.199219 L 20 14.398438 L 23.601562 14.398438 C 23.839844 14.398438 24 14.238281 24 14 C 24 13.761719 23.839844 13.601562 23.601562 13.601562 Z M 0.800781 10.398438 L 6.398438 10.398438 C 6.640625 10.398438 6.800781 10.238281 6.800781 10 C 6.800781 9.761719 6.640625 9.601562 6.398438 9.601562 L 0.800781 9.601562 L 0.800781 8.398438 L 4.800781 8.398438 C 5.039062 8.398438 5.199219 8.238281 5.199219 8 C 5.199219 7.761719 5.039062 7.601562 4.800781 7.601562 L 0.800781 7.601562 L 0.800781 3.960938 C 0.800781 3.519531 1.121094 3.199219 1.558594 3.199219 L 18.441406 3.199219 C 18.878906 3.199219 19.199219 3.558594 19.199219 3.960938 L 19.199219 13.601562 L 0.800781 13.601562 Z M 4.800781 20.800781 C 3.679688 20.800781 2.800781 19.921875 2.800781 18.800781 C 2.800781 17.679688 3.679688 16.800781 4.800781 16.800781 C 5.921875 16.800781 6.800781 17.679688 6.800781 18.800781 C 6.800781 19.921875 5.921875 20.800781 4.800781 20.800781 Z M 15.199219 20.800781 C 14.078125 20.800781 13.199219 19.921875 13.199219 18.800781 C 13.199219 17.679688 14.078125 16.800781 15.199219 16.800781 C 16.320312 16.800781 17.199219 17.679688 17.199219 18.800781 C 17.199219 19.921875 16.320312 20.800781 15.199219 20.800781 Z M 19.199219 18.398438 L 17.972656 18.398438 C 17.78125 17.035156 16.625 16 15.199219 16 C 15.195312 16 15.1875 16 15.179688 16 C 15.171875 16 15.167969 16 15.160156 16 C 13.761719 16 12.601562 17.039062 12.398438 18.398438 L 7.570312 18.398438 C 7.394531 17.117188 6.363281 16.128906 5.0625 16.011719 C 5.054688 16.011719 5.042969 16.011719 5.035156 16.011719 C 5 16.007812 4.96875 16.003906 4.933594 16.003906 C 4.890625 16 4.84375 16 4.800781 16 C 4.753906 16 4.710938 16 4.664062 16.003906 C 4.632812 16.003906 4.597656 16.007812 4.566406 16.011719 C 4.554688 16.011719 4.546875 16.011719 4.539062 16.011719 C 3.234375 16.128906 2.207031 17.117188 2.027344 18.398438 L 1.398438 18.398438 C 1.078125 18.398438 0.800781 18.121094 0.800781 17.800781 L 0.800781 14.398438 L 19.199219 14.398438 Z M 19.199219 18.398438"/>
</svg>

<svg xmlns="http://www.w3.org/2000/svg" width="32" height="32" viewBox="0 0 24 24">
    <path d="M4.8 18c-.44 0-.8.36-.8.8 0 .438.36.802.8.802.438 0 .802-.364.802-.801 0-.442-.364-.801-.801-.801zm0 0M15.2 18c-.438 0-.802.36-.802.8 0 .438.364.802.801.802.442 0 .801-.364.801-.801 0-.442-.36-.801-.8-.801zm0 0"/>
    <path d="M23.602 13.602h-1.204v-1.204c0-.238-.16-.398-.398-.398-.238 0-.398.16-.398.398v1.204H20V3.96c0-.883-.68-1.563-1.52-1.563H1.56C.679 2.398 0 3.078 0 3.961V17.8c0 .758.64 1.398 1.398 1.398h.63A2.782 2.782 0 0 0 4.8 21.602a2.781 2.781 0 0 0 2.77-2.403h4.859a2.781 2.781 0 0 0 2.77 2.403 2.782 2.782 0 0 0 2.773-2.403H20v-4.8h3.602c.238 0 .398-.16.398-.399 0-.238-.16-.398-.398-.398zM.8 10.398h5.597c.243 0 .403-.16.403-.398 0-.238-.16-.398-.403-.398H.801V8.398h4c.238 0 .398-.16.398-.398 0-.238-.16-.398-.398-.398h-4V3.96c0-.441.32-.762.758-.762H18.44a.76.76 0 0 1 .758.762v9.64H.801zm4 10.403c-1.121 0-2-.88-2-2 0-1.121.879-2 2-2 1.12 0 2 .879 2 2 0 1.12-.88 2-2 2zm10.398 0c-1.12 0-2-.88-2-2 0-1.121.88-2 2-2 1.121 0 2 .879 2 2 0 1.12-.879 2-2 2zm4-2.403h-1.226A2.782 2.782 0 0 0 15.199 16h-.039c-1.398 0-2.558 1.04-2.762 2.398H7.57a2.772 2.772 0 0 0-2.508-2.386h-.027c-.035-.004-.066-.008-.101-.008C4.89 16 4.844 16 4.8 16c-.047 0-.09 0-.137.004a.822.822 0 0 0-.098.008H4.54a2.776 2.776 0 0 0-2.512 2.386h-.629a.61.61 0 0 1-.597-.597v-3.403h18.398zm0 0"/>
</svg>
